static/logos/hubspot-glyph-color.svg

<svg width="50" height="50" viewBox="0 0 50 50" fill="none" xmlns="http://www.w3.org/2000/svg">
<path d="M37.547 16.9254V11.0535C38.323 10.6908 38.98 10.1152 39.4416 9.39368C39.9031 8.67215 40.1503 7.83435 40.1542 6.97782V6.8431C40.1542 4.34575 38.1297 2.32125 35.6326 2.32125H35.4976C33.0003 2.32125 30.9758 4.34575 30.9758 6.8431V6.97782C30.9797 7.83435 31.2269 8.67215 31.6884 9.39368C32.15 10.1152 32.807 10.6908 33.583 11.0535V16.9254C31.3528 17.2669 29.2524 18.1917 27.4946 19.606L11.3905 7.0626C11.5053 6.64807 11.5652 6.22179 11.572 5.79393C11.5739 4.78617 11.277 3.80047 10.7187 2.96151C10.1604 2.12254 9.36578 1.468 8.43543 1.08069C7.50507 0.693373 6.48074 0.59068 5.49202 0.785599C4.50329 0.980518 3.59458 1.46429 2.88083 2.17573C2.16708 2.88716 1.68037 3.7943 1.48224 4.78239C1.28412 5.77048 1.38349 6.79513 1.76778 7.72674C2.15208 8.65835 2.80404 9.45506 3.64119 10.0161C4.47834 10.5771 5.46307 10.8773 6.47083 10.8786C7.35243 10.8744 8.21752 10.639 8.97971 10.196L24.8376 22.5358C21.9222 26.9401 22.0002 32.68 25.034 37.0037L20.2109 41.8282C19.8208 41.7036 19.4149 41.6373 19.0055 41.6318C16.6956 41.6338 14.8244 43.507 14.825 45.8169C14.8256 48.1266 16.698 49.9988 19.0077 49.9994C21.3176 50 23.1908 48.1288 23.1928 45.8189C23.1874 45.4096 23.1211 45.0035 22.9962 44.6137L27.7676 39.8405C32.0309 43.1225 37.8863 43.4053 42.4462 40.5494C47.0058 37.6932 49.307 32.3013 48.2144 27.0332C47.1219 21.7649 42.8665 17.7328 37.547 16.9252V16.9254ZM35.5693 36.2377C34.6878 36.2614 33.8105 36.1083 32.9892 35.7873C32.1678 35.4664 31.4191 34.9841 30.7873 34.369C30.1554 33.7539 29.6532 33.0185 29.3103 32.2061C28.9673 31.3937 28.7907 30.5208 28.7907 29.639C28.7907 28.7572 28.9673 27.8843 29.3103 27.0719C29.6532 26.2595 30.1554 25.5241 30.7873 24.909C31.4191 24.2939 32.1678 23.8116 32.9892 23.4907C33.8105 23.1697 34.6878 23.0166 35.5693 23.0403C39.1216 23.1647 41.9375 26.0795 41.9395 29.6342C41.9411 33.1885 39.1281 36.1063 35.5758 36.2343" fill="#FF7A59"/>
</svg>

<svg xmlns="http://www.w3.org/2000/svg" width="64" height="64" fill="none" viewBox="0 0 50 50"><path fill="#FF7A59" d="M37.547 16.925v-5.872a4.522 4.522 0 0 0 2.607-4.075v-.135a4.522 4.522 0 0 0-4.521-4.522h-.135a4.522 4.522 0 0 0-4.522 4.522v.135a4.522 4.522 0 0 0 2.607 4.075v5.872a12.804 12.804 0 0 0-6.088 2.681L11.39 7.063c.115-.415.175-.841.182-1.27a5.095 5.095 0 1 0-5.101 5.086 5.04 5.04 0 0 0 2.509-.683l15.858 12.34a12.845 12.845 0 0 0 .196 14.468l-4.823 4.824a4.143 4.143 0 0 0-1.205-.196 4.184 4.184 0 1 0 4.187 4.187 4.128 4.128 0 0 0-.197-1.205l4.772-4.773a12.867 12.867 0 1 0 9.779-22.916Zm-1.978 19.313a6.6 6.6 0 1 1 0-13.198 6.601 6.601 0 0 1 .007 13.194"/></svg>
